X:1
T:The Oxford and Hampton Railway
M:2/4
L:1/8
K:A
 E2| A/2 A3/2 B/2 c3/2| A/2 A3/2 G3/2 E/2| A/2 A3/2 Bc| d/2 B3/2 B3/2 E/2|\
 A/2 A3/2 Bc| d/2 B3/2 B3/2 A/2| GE FG| A3/2 A/2- A2| FF FE| FG A2|\
 E3/2 F/2 ED| CD E2| F/2F/2 FF E| FG A B/2B/2| c A/2A/2| BG| A2 A2|\
 z4| z4| AA Bc| A/2A/2 A G3/2 E/2| AA Bc| d/2d/2 B B2| AA Bc| dB B3/2 E/2|\
 AA Bc| dB B A/2A/2| G E/2E/2 FG| A3/2 A/2- A2|

